assets/Sauropod/Flat/sauropod_flat.svg

<svg width="32" height="32" viewBox="0 0 32 32" fill="none" xmlns="http://www.w3.org/2000/svg">
<path d="M12 23H16V29.5C16 29.78 15.78 30 15.5 30H12.5C12.22 30 12 29.78 12 29.5V23Z" fill="#008463"/>
<path d="M17 23H21V29.5C21 29.78 20.78 30 20.5 30H17.5C17.22 30 17 29.78 17 29.5V23Z" fill="#008463"/>
<path d="M30 14.97C30 11.83 28.2656 8.89062 25.55 7.81C25.3783 7.74168 25.2 7.75 25.06 7.85C25.06 7.85 25.05 7.85 25.05 7.86C24.78 8.06 24.8177 8.38749 25.09 8.64C26.4219 9.875 27.1406 11.0781 27.2794 12.8175C27.3438 13.625 26.9881 14.3938 26.5781 15.0938C26.2086 15.7246 25.55 16.22 25 16.22C24.1875 16.22 23.72 15.6619 23.25 15.1719C22.59 14.3719 21.51 14 20.4 14H9.31C9.14 14 8.95312 13.86 8.95312 13.69V3.88C8.95312 2.84 8.16 2.1875 7.12 2.1875H4C2.9 2.1875 2 2.9 2 4C2 5.1 2.9 6 4 6H4.69C4.86 6 5.21875 6.14 5.21875 6.31L5.125 21.01C5.125 22.19 5.69 23.22 6.69 23.7C7.08 23.89 7.29 24.32 7.19 24.75L6.09 29.62C6.04 29.81 6.19 30 6.39 30H9.6C9.83 30 10.04 29.84 10.09 29.61L11.3438 24.49C11.4037 24.2 11.56 24 11.85 24H21.05C21.34 24 21.4869 24.2 21.5469 24.49L22.8125 29.5469C22.8625 29.7769 23.0625 29.9369 23.3025 29.9369H26.5125C26.7125 29.9369 27.0031 29.7369 26.9531 29.5469L25.3 22.95C25.22 22.59 25.39 22.21 25.72 22.04C28.26 20.71 30 18.04 30 14.97Z" fill="#00D26A"/>
<path d="M6.5 4.03125C6.77614 4.03125 7 3.80739 7 3.53125C7 3.25511 6.77614 3.03125 6.5 3.03125C6.22386 3.03125 6 3.25511 6 3.53125C6 3.80739 6.22386 4.03125 6.5 4.03125Z" fill="#1C1C1C"/>
</svg>

<svg xmlns="http://www.w3.org/2000/svg" width="32" height="32" fill="none"><path fill="#008463" d="M12 23h4v6.5c0 .28-.22.5-.5.5h-3c-.28 0-.5-.22-.5-.5V23ZM17 23h4v6.5c0 .28-.22.5-.5.5h-3c-.28 0-.5-.22-.5-.5V23Z"/><path fill="#00D26A" d="M30 14.97c0-3.14-1.734-6.08-4.45-7.16a.505.505 0 0 0-.49.04s-.01 0-.01.01c-.27.2-.232.527.04.78 1.332 1.235 2.05 2.438 2.19 4.178.064.807-.292 1.576-.702 2.276-.37.63-1.028 1.126-1.578 1.126-.813 0-1.28-.558-1.75-1.048-.66-.8-1.74-1.172-2.85-1.172H9.31c-.17 0-.357-.14-.357-.31V3.88c0-1.04-.793-1.692-1.833-1.692H4C2.9 2.188 2 2.9 2 4s.9 2 2 2h.69c.17 0 .529.14.529.31l-.094 14.7c0 1.18.565 2.21 1.565 2.69.39.19.6.62.5 1.05l-1.1 4.87c-.05.19.1.38.3.38H9.6c.23 0 .44-.16.49-.39l1.254-5.12c.06-.29.216-.49.506-.49h9.2c.29 0 .437.2.497.49l1.265 5.057c.05.23.25.39.49.39h3.21c.2 0 .491-.2.441-.39L25.3 22.95c-.08-.36.09-.74.42-.91 2.54-1.33 4.28-4 4.28-7.07Z"/><path fill="#1C1C1C" d="M6.5 4.031a.5.5 0 1 0 0-1 .5.5 0 0 0 0 1Z"/></svg>
